assets/svgs/misc-grey/MiscGrey13.svg

<svg width="38" height="41" viewBox="0 0 38 41" fill="none" xmlns="http://www.w3.org/2000/svg">
<path fill-rule="evenodd" clip-rule="evenodd" d="M34.95 35.735C34.94 37.445 33.81 37.729 33.15 37.745C33.15 37.745 6.19002 37.75 5.02002 37.751C4.49002 37.751 4.07002 37.603 3.77002 37.31C3.34002 36.881 3.12002 36.08 3.12002 35.002C3.12002 34.021 3.12002 23.93 3.12002 16.87H34.96C34.96 23.65 34.97 33.338 34.95 35.735ZM3.12002 9.993C3.12002 8.425 3.72002 7.753 5.13002 7.745C5.26002 7.744 6.34002 7.744 8.01002 7.743V9.948C8.01002 10.776 8.68002 11.448 9.51002 11.448C10.33 11.448 11.01 10.776 11.01 9.948V7.743C11.65 7.743 12.33 7.743 13.04 7.743C17.43 7.743 22.8 7.743 26.84 7.743V9.948C26.84 10.776 27.51 11.448 28.34 11.448C29.17 11.448 29.84 10.776 29.84 9.948V7.743C31.65 7.743 32.81 7.743 32.85 7.744C33.58 7.769 34.1 7.955 34.43 8.316C34.9 8.82 34.97 9.639 34.96 9.896C34.96 9.929 34.96 9.963 34.96 9.997C34.96 10.054 34.96 11.584 34.96 13.87H3.12002C3.12002 11.546 3.12002 9.995 3.12002 9.995C3.12002 9.994 3.12002 9.993 3.12002 9.993ZM37.96 10.031C37.97 9.617 37.97 7.755 36.67 6.315C36.05 5.635 34.91 4.811 32.9 4.745C32.69 4.745 31.54 4.745 29.84 4.744V2.448C29.84 1.62 29.17 0.947998 28.34 0.947998C27.51 0.947998 26.84 1.62 26.84 2.448V4.744C22.13 4.744 15.67 4.743 11.01 4.743V2.448C11.01 1.62 10.33 0.947998 9.51002 0.947998C8.68002 0.947998 8.01002 1.62 8.01002 2.448V4.744C6.33002 4.744 5.24002 4.744 5.12002 4.745C2.70002 4.759 0.110024 6.146 0.120024 9.997C0.120024 10.244 0.130024 33.477 0.120024 34.995C0.120024 36.921 0.630024 38.414 1.65002 39.432C2.52002 40.295 3.68002 40.751 5.01002 40.751C5.02002 40.751 5.02002 40.751 5.02002 40.751C6.20002 40.75 33.15 40.745 33.14 40.745C33.15 40.745 33.15 40.745 33.15 40.745C35.07 40.745 37.93 39.417 37.95 35.755C37.98 32.054 37.96 11.064 37.96 10.031ZM17.16 31.166C17.16 32.176 17.98 32.994 18.99 32.994C20 32.994 20.82 32.176 20.82 31.166C20.82 30.156 20 29.338 18.99 29.338C17.98 29.338 17.16 30.156 17.16 31.166ZM7.80002 31.166C7.80002 32.176 8.62002 32.994 9.63002 32.994C10.64 32.994 11.46 32.176 11.46 31.166C11.46 30.156 10.64 29.338 9.63002 29.338C8.62002 29.338 7.80002 30.156 7.80002 31.166ZM26.52 31.166C26.52 32.176 27.34 32.994 28.35 32.994C29.36 32.994 30.18 32.176 30.18 31.166C30.18 30.156 29.36 29.338 28.35 29.338C27.34 29.338 26.52 30.156 26.52 31.166ZM17.16 22.916C17.16 23.926 17.98 24.744 18.99 24.744C20 24.744 20.82 23.926 20.82 22.916C20.82 21.906 20 21.088 18.99 21.088C17.98 21.088 17.16 21.906 17.16 22.916ZM26.52 22.916C26.52 23.926 27.34 24.744 28.35 24.744C29.36 24.744 30.18 23.926 30.18 22.916C30.18 21.906 29.36 21.088 28.35 21.088C27.34 21.088 26.52 21.906 26.52 22.916Z" fill="#1A1919"/>
</svg>

<svg xmlns="http://www.w3.org/2000/svg" viewBox="0 0 38 41"><path fill-rule="evenodd" d="M34.95 35.735c-.01 1.71-1.14 1.994-1.8 2.01l-28.13.006c-.53 0-.95-.148-1.25-.441-.43-.429-.65-1.23-.65-2.308V16.87h31.84c0 6.78.01 16.468-.01 18.865zM3.12 9.993c0-1.568.6-2.24 2.01-2.248l2.88-.002v2.205a1.5 1.5 0 103 0V7.743h15.83v2.205a1.5 1.5 0 103 0V7.743l3.01.001c.73.025 1.25.211 1.58.572.47.504.54 1.323.53 1.58v3.974H3.12V9.995v-.002zm34.84.038c.01-.414.01-2.276-1.29-3.716-.62-.68-1.76-1.504-3.77-1.57l-3.06-.001V2.448a1.5 1.5 0 10-3 0v2.296l-15.83-.001V2.448a1.5 1.5 0 10-3 0v2.296l-2.89.001C2.7 4.759.11 6.146.12 9.997c0 .247.01 23.48 0 24.998 0 1.926.51 3.419 1.53 4.437.87.863 2.03 1.319 3.36 1.319h.01l28.12-.006h.01c1.92 0 4.78-1.328 4.8-4.99.03-3.701.01-24.691.01-25.724zm-20.8 21.135a1.83 1.83 0 103.658-.002 1.83 1.83 0 00-3.658.002zm-9.36 0a1.83 1.83 0 103.658-.002 1.83 1.83 0 00-3.658.002zm18.72 0a1.83 1.83 0 103.658-.002 1.83 1.83 0 00-3.658.002zm-9.36-8.25a1.83 1.83 0 103.658-.002 1.83 1.83 0 00-3.658.002zm9.36 0a1.83 1.83 0 103.658-.002 1.83 1.83 0 00-3.658.002z" clip-rule="evenodd"/></svg>
